X:37
T:Captain Patrick McKenzie's Strathspey
C:Robert Petrie
S:Petrie's Collection of Strathspey Reels and Country Dances &c., 1790
Z:Steve Wyrick , 6/4/04
N:Petrie's First Collection, page 17
N:Violin part is in scordatura, tuning A,EAe -SW
%See #53 for my version in standard tuning -SW
L:1/8
V:1 name = "violin"
V:2 name = "bass" clef=bass middle=d transpose=-24
M:C
R:Strathspey
K:A
[V:1] "^Scordatura"G|G,<G,G,>B, (DE/F/)TG>F|TE>DE<G B/A/B/c/ B<c|G,<G,G,>B, (DE/F/) Gf|(3(ef)d (3(cd)B c<AA:|
[V:2]              z|A2   c2     A2     c2 | d2 D2  e2        z2|a2   c2     A2     c2|   e2      E2   A2A :|
[V:1] (e/f/4g/4)|Ta>ga>e c<ea<c|dA (FBBd)|c<ae<a f<aB<d|ceDd cAA (e/f/4g/4)|
[V:2]  z        | a2 c'2 a2 a2 |b2 c'2  d'2e2|a2 c'2 d'2z2 |e'2e2a2z2          |
[V:1] Ta>ga<e c<ea>c|dA      FD|E<GD<G C<GB,>G|A,B,/C/ D/C/B,/A,/ B,G,G,|]
[V:2]  A2 c2  A2 a2 |[g2b2][a2c2]e'2z2 |d2 c2  B2 A2  |E2      E2         A2A   |]
% The above code was written using Phil Taylor's BarFly abc reader/converter/player program.
% Other abc converters (e.g. abc2ps) may require everything after the word "bass" to be
% deleted in the V:2 header line for correct display of notes the bass clef, or require that
% the M: and K: fields be repeated directly under the V:1 header line to display the meter
% and key signature on both staffs.  Some abc MIDI players (e.g. abc2midi) will not play
% multiple-voiced abc code.  -SW
